X:1
T:Albertina (Skonnert Albertina)
M:4/4
L:1/8
K:Eb
 B,2| E2 EF G2 FE| D2 B,4 B,B,| F2 FG AA GF| E2 EE E2 E3/2 G/2| B3/2 B/2 B3/2 B/2 G3/2 E/2 A3/2 c/2|\
 e3/2 e/2 e3/2 e/2 cA c3/2 c/2| B2 d3/2 c/2 B3/2 B/2 A3/2 F/2| E2 E2 E E3|\
 z4 z2 E3/2 G/2| B3/2 B/2 B3/2 B/2 G3/2 E/2 A3/2 c/2| e3/2 e/2 e3/2 e/2 cA c3/2 c/2|\
 B2 d3/2 c/2 B3/2 B/2 A3/2 F/2| E6 z2|
